X: 552
T: Dere Geliyor Dere
C: (Anonim)
O: Turkey
F: http://compmusic.upf.edu/node/140
N: huseyni--turku--evfer--dere_geliyor--
N: makam= huseyni
N: form= turku
N: usul= evfer = 9/8
M: 9/8
L: 1/16
K: C _2/4B ^3/4f  
Q: 1/4=284
%%MIDI tuningsystem comma53
d2e2 e2e2 e4 d2c4 | e2 d2d4c3dB2 A4  | \
w:  De re  ge li yor  de re   |  ya  le  lel  yâ  *  le  le    | 
A2_1/4B2 c2d2 d4 B2c4 | 
w:  Ku mu nu  se re  se re   | 
B2 A2A4A8-A2  | d2e2 e2e2 e4 d2c4 | e2 d2d4c3dB2 A4  | \
w:  ye  le  lel  li    |  De re  ge li yor  de re   |  ya  le  lel  yâ  *  le  le    | 
A2_1/4B2 c2d2 d4 B2c4 | 
w:  Ku mu nu  se re  se re   | 
B2 A2A4A8-A2  | d2e2 e4 e2e2 d2c4 | e2 d2d3Bc2 d2B2 A4  | \
w:  ye  le  lel  li    |  A ma nın  a man  a man    |  Za ma nın  *  za man  za man    | 
A2_1/4B2 c2d2 d4 _2/4B2c4 | 
w:  Bi zim  dü ğün  ne  za man   | 
B2 A2A4A8-A2  | d2e2 e2e2 e4 d2c4 | e2 d2d4c3dB2 A4  | \
w:  ya  le  lel  lim    |  De re  ge li yor  de re   |  ya  le  lel  yâ  *  le  le    | 
A2_1/4B2 c2d2 d4 B2c4 | 
w:  Ku mu nu  se re  se re   | 
B2 A2A4A8-A2  | d2e2 e2e2 e4 d2c4 | e2 d2d4c3dB2 A4  | \
w:  ye  le  lel  li    |  De re  ge li yor  de re   |  ya  le  lel  yâ  *  le  le    | 
A2_1/4B2 c2d2 d4 B2c4 | 
w:  Ku mu nu  se re  se re   | 
B2 A2A4A8-A2  | d2e2 e4 e2e2 d2c4 | e2 d2d3Bc2 d2B2 A4  | \
w:  ye  le  lel  li    |  A ma nın  a man  a man    |  Za ma nın  *  za man  za man    | 
A2_1/4B2 c2d2 d4 _2/4B2c4 | 
w:  Bi zim  dü ğün  ne  za man   | 
B2 A2A4A8-A2  | |


